img/service-size-icon__11.svg

<svg width="25" height="19" viewBox="0 0 25 19" fill="none" xmlns="http://www.w3.org/2000/svg">
<path d="M14.4531 2.66602C14.1836 2.66602 13.9648 2.88476 13.9648 3.15429C13.9648 3.42382 14.1836 3.64257 14.4531 3.64257C14.7227 3.64257 14.9414 3.42382 14.9414 3.15429C14.9414 2.88476 14.7227 2.66602 14.4531 2.66602Z" fill="black"/>
<path d="M24.5117 0.712891H0.488281C0.218604 0.712891 0 0.931494 0 1.20117V8.03711C0 8.05537 0.00117188 8.07334 0.003125 8.09107C0.0109863 8.16157 0.0321289 8.21641 0.0587402 8.26948C0.499512 8.97949 2.66748 14.0342 9.04053 18.0391C9.29009 18.1959 9.37275 18.2862 9.57031 18.2862L9.57373 18.2861H15.4263L15.4297 18.2862C15.6058 18.2862 15.7047 18.2042 15.8163 18.1343C19.4416 15.8632 22.8766 12.3991 24.9484 8.25547C24.9789 8.19478 25 8.11528 25 8.03711V1.20117C25 0.931494 24.7814 0.712891 24.5117 0.712891ZM1.31255 8.55776C4.41167 8.79785 6.65435 10.4204 7.98452 13.3923C8.45117 14.435 8.78525 15.608 8.96685 16.8276C5.00874 14.1851 2.65889 11.0104 1.31255 8.55776ZM0.976611 7.55903V5.5957H10.0617C10.0643 5.82202 10.0683 6.04048 10.0723 6.2544C10.1075 8.154 10.1308 9.40894 9.09497 11.1355L8.47051 12.1765C7.27227 9.99058 5.05132 7.72695 0.976611 7.55903ZM15.7397 18.1798C15.7435 18.1768 15.7471 18.1738 15.7471 18.1738C15.7471 18.1738 15.7429 18.1772 15.7397 18.1798ZM14.9865 17.3145H10.0135C9.85918 15.8744 9.50439 14.4739 8.97793 13.2289L9.93237 11.6379C11.1124 9.67105 11.0842 8.15532 11.0487 6.23633C11.0448 6.02813 11.0411 5.81006 11.0384 5.59082H13.9615C13.9589 5.81001 13.9551 6.02808 13.9513 6.23633C13.9158 8.15527 13.8876 9.671 15.0676 11.6379L16.0228 13.2298C15.4959 14.4747 15.1409 15.8749 14.9865 17.3145ZM16.0331 16.8285C16.2148 15.6089 16.5492 14.4358 17.0165 13.3927C18.346 10.4209 20.588 8.79824 23.6864 8.55781C21.8521 11.8893 19.0462 14.7837 16.0331 16.8285ZM24.0234 7.55903C19.9485 7.727 17.728 9.99116 16.5302 12.1773L15.9051 11.1355C14.8693 9.40894 14.8925 8.15396 14.9277 6.2544C14.9317 6.04043 14.9357 5.82197 14.9384 5.5957H24.0234V7.55903ZM24.0234 4.61914H0.976562V1.68945H24.0234V4.61914Z" fill="black"/>
<path d="M12.5 2.66602H10.5469C10.2772 2.66602 10.0586 2.88462 10.0586 3.15429C10.0586 3.42397 10.2772 3.64257 10.5469 3.64257H12.5C12.7697 3.64257 12.9883 3.42397 12.9883 3.15429C12.9883 2.88462 12.7697 2.66602 12.5 2.66602Z" fill="black"/>
</svg>

<svg width="25" height="19" fill="none" xmlns="http://www.w3.org/2000/svg"><path d="M14.453 2.666a.488.488 0 100 .977.488.488 0 000-.977z" fill="#000"/><path d="M24.512.713H.488A.488.488 0 000 1.2v6.836a.492.492 0 00.059.232c.44.71 2.608 5.765 8.982 9.77.25.157.332.247.53.247h5.859c.176 0 .275-.082.386-.152 3.626-2.27 7.06-5.735 9.132-9.879.03-.06.052-.14.052-.218V1.201a.488.488 0 00-.488-.488zm-23.2 7.845c3.1.24 5.342 1.862 6.673 4.834.466 1.043.8 2.216.982 3.436-3.958-2.643-6.308-5.818-7.654-8.27zm-.335-.999V5.596h9.085c.002.226.006.444.01.658.036 1.9.059 3.155-.977 4.882l-.624 1.04C7.272 9.992 5.05 7.728.977 7.56zm14.763 10.62l.007-.005-.007.006zm-.754-.864h-4.973a14.57 14.57 0 00-1.035-4.086l.954-1.591c1.18-1.967 1.152-3.483 1.117-5.402a63.903 63.903 0 01-.01-.645h2.922c-.002.219-.006.437-.01.645-.035 1.92-.063 3.435 1.117 5.402l.955 1.592a14.548 14.548 0 00-1.037 4.084zm1.047-.487a13.23 13.23 0 01.983-3.435c1.33-2.972 3.572-4.595 6.67-4.835-1.834 3.331-4.64 6.226-7.653 8.27zm7.99-9.269c-4.075.168-6.295 2.432-7.493 4.618l-.625-1.041c-1.036-1.727-1.012-2.982-.977-4.882.004-.214.008-.432.01-.658h9.085v1.963zm0-2.94H.977V1.69h23.046v2.93z" fill="#000"/><path d="M12.5 2.666h-1.953a.488.488 0 100 .977H12.5a.488.488 0 100-.977z" fill="#000"/></svg>
